!!!OTL: ES BLIES EIN JAEGER WOL IN SEIN HORN
!!!ARE: Europa, Mitteleuropa, Deutschland, Schlesien
!!!SCT: E0019B
!!!YEM: Copyright 1995, estate of Helmut Schaffrath.
**kern
*ICvox
*Ivox
*M4/4
*k[f#]
*G:
{4d
=1
4g
4g
8b
8a
8b
8cc
=2
4dd
8cc
8b
4a
8r}
{8b
=3
4dd
8cc
8b
4a
8r}
{8a
=4
8a
8a
8a
8a
8a
8g
8f#
8g
=5
8a
8g
8f#
8e
4d
4r}
=6
{4g
4g
4.g
8b
=7
4a
4a
4a
8r}
{8a
=8
8b
8a
8b
8cc
4dd
8dd
8cc
=9
4b
4a
4g}
==
!!!AGN: Sage, Maerchen -, Zauber - Lied, Ballade ?
!!!ONB: ESAC (Essen Associative Code) Database: ERK1
!!!AMT: simple quadruple
!!!AIN: vox
!!!EED: Helmut Schaffrath
!!!EEV: 1.0
*-
